svgs/pano_scrobbler.svg

<svg width="192" height="192" viewBox="0 0 192 192" fill="none" xmlns="http://www.w3.org/2000/svg">
<path d="M96.6224 34C58.5208 35.2429 35.5328 54.885 25.0397 89.7381" stroke="black" stroke-width="10" stroke-linecap="round" stroke-linejoin="round"/>
<path d="M21 101.282C21 101.282 32.9186 107.219 37.3902 99.5957C84.6945 20.2588 112.134 75.2193 123.844 48.507" stroke="black" stroke-width="10" stroke-linecap="round" stroke-linejoin="round"/>
<path d="M90.3865 152.109C98.319 152.109 104.749 131.231 104.749 105.476C104.749 79.7212 98.319 58.8428 90.3865 58.8428C82.4543 58.8428 76.024 79.7212 76.024 105.476C76.024 131.231 82.4543 152.109 90.3865 152.109Z" stroke="black" stroke-width="8" stroke-linecap="round" stroke-linejoin="round"/>
<path d="M171 82.3544C156.435 48.8018 102.775 92.4669 150.379 110.719C212.483 134.53 91.7747 199.484 42.0441 116.071C36.0713 106.053 26.2527 120.553 21.11 119.242" stroke="black" stroke-width="10" stroke-linecap="round" stroke-linejoin="round"/>
<path d="M102.595 83.3005C97.795 81.8416 96.4637 84.3133 94.2923 86.6767C98.973 93.4246 96.4559 99.8947 89.6762 101.587C88.3887 117.346 94.2077 129.866 102.97 127.957" stroke="black" stroke-width="6" stroke-linecap="round" stroke-linejoin="round"/>
<path d="M122.662 65.2055C105.467 74.2236 99.314 64.1329 90.3865 58.8428" stroke="black" stroke-width="6" stroke-linecap="round" stroke-linejoin="round"/>
</svg>

<svg width="192" height="192" viewBox="0 0 192 192" fill="none" xmlns="http://www.w3.org/2000/svg"><path d="M96.622 34c-38.101 1.243-61.09 20.885-71.582 55.738" stroke="#000" stroke-width="10" stroke-linecap="round" stroke-linejoin="round"/><path d="M21 101.282s11.919 5.937 16.39-1.686c47.305-79.337 74.744-24.377 86.454-51.089" stroke="#000" stroke-width="10" stroke-linecap="round" stroke-linejoin="round"/><path d="M90.386 152.109c7.933 0 14.363-20.878 14.363-46.633 0-25.755-6.43-46.633-14.362-46.633-7.933 0-14.363 20.878-14.363 46.633 0 25.755 6.43 46.633 14.362 46.633Z" stroke="#000" stroke-width="8" stroke-linecap="round" stroke-linejoin="round"/><path d="M171 82.354c-14.565-33.552-68.225 10.113-20.621 28.365 62.104 23.811-58.604 88.765-108.335 5.352-5.973-10.018-15.791 4.482-20.934 3.171" stroke="#000" stroke-width="10" stroke-linecap="round" stroke-linejoin="round"/><path d="M102.595 83.3c-4.8-1.458-6.131 1.013-8.303 3.377 4.681 6.748 2.164 13.218-4.616 14.91-1.287 15.759 4.532 28.279 13.294 26.37M122.662 65.206c-17.195 9.018-23.348-1.073-32.276-6.363" stroke="#000" stroke-width="6" stroke-linecap="round" stroke-linejoin="round"/></svg>
